X:1
T:Agimus Tibi Gratias
T:Lassus edit BMarble
T:Agimus Tibi Gratias
T:Copyright © 2017 by The Choral Public Domain Library. Edition may be freely distributed, duplicated, performed or recorded.
T:Copyright © 2017 by The Choral Public Domain Library. Edition may be freely distributed, duplicated, performed or recorded.
T:Copyright © 2017 by The Choral Public Domain Library. Edition may be freely distributed, duplicated, performed or recorded.
T:Copyright © 2017 by The Choral Public Domain Library. Edition may be freely distributed, duplicated, performed or recorded.
T:Copyright © 2017 by The Choral Public Domain Library. Edition may be freely distributed, duplicated, performed or recorded.
C:Lassus
C:edit BMarble
Z:Copyright © 2017 by The Choral Public Domain Library. Edition may be freely distributed, duplicated, performed or recorded.
%%score [ 1 2 3 4 ]
L:1/8
Q:1/2=92
M:2/1
K:Eb
V:1 treble nm="Soprano" snm="S."
V:2 treble nm="Alto" snm="A."
V:3 treble-8 transpose=-12 nm="Tenor" snm="T."
V:4 bass nm="Bass" snm="B."
V:1
"^We give you thanks, O God almighty king, for all your benefits,who lives and reigns for all ages. Amen." z16 | %1
w: |
 E12 E4 | E16 | F8 E8 | A12 G4 | G16 | z8 A8- | A8 G8 | G6 G2 G8 | B8 B8 | z8 G8 | G4 G4 E8- | %12
w: A- gi-|mus|ti- bi|gra- ti-|as,|Rex|_ o-|mni- po- tens|De- us,|pro|u- ni- ver-|
 E4 B,4 F8 | G4 B8 A4 | G8 G8 | G4 G4 C8 | G4 _A4 G8 | C4 _D4 C8 | F8[Q:1/2=104] G4 B2 A2 | %19
w: * sus be-|ne- fi- ci-|is tu-|is, qui vi-|vis et re-|gnas, et re-|gnas, per o- mni-|
 G4 G2 F2 =E4 F2 G2 | F4 F4 G4 B2 A2 | G4 G2 F2 =E4 F2 G2 | F8 F8 |[Q:1/2=52] (G8 A8) | G16 |] %25
w: a se- cu- la sae- cu-|lo- rum, per o- mni-|a se- cu- la sae- cu-|lo- rum.|A- *|men.|
V:2
 z8 G,8- | G,4 G,4 G,8- | G,4 (A,6 G,F, G,4) | A,8 z4 A,4- | (A,2 B,2 C2 =D2 E6) E2 | B,8 C8- | %6
w: A-|* gi- mus|_ ti- * * *|bi gra-|* * * * * ti-|as, Rex|
 C8 E8 | F12 =E4 | =E16 | F8 F8 | B,8 D4 D4 | (_E6 DC B,4) C4 | B,4 (E6 DC D4) | E4 D4 F8 | %14
w: _ o-|mni- po-|tens|De- us,|pro u- ni-|ver- * * * sus|be- ne- * * *|fi- ci- is|
 (E4 D2 C2 D8) | =E8 z4 F4 | =E4 (F6 ED E4) | F8 F8 | =D8 _E4 E2 E2 | E4 E2 C2 C4 C2 _E2 | %20
w: tu- * * *|is, qui|vi- vis _ _ _|et re-|gnas, per o- mni-|a se- cu- la sae- cu-|
 D4 D4 E4 E2 E2 | E4 E2 C2 C4 C2 _E2 | D8 D8 | E16 | E16 |] %25
w: lo- rum, per o- mni-|a se- cu- la sae- cu-|lo- rum.|A-|men.|
V:3
 B12 B4 | B16 | (c8 B6 c2 | _d4) d4 c8- | c4 A4 B8 | e16- | e8 c4 c4- | c4 c4 c8- | c16 | %9
w: A- gi-|mus|ti- * *|* bi gra-|* ti- as,|Rex|_ o- mni-|* po- tens|_|
 =d8 d4 d4 | d4 d4 B8- | B8 G4 A4- | (A2 GF G2 A2 B4) B4 | B6 B2 _d4 c4- | (c4 =B2 =A2 B8) | %15
w: De- us, pro|u- ni- ver-|* sus be-|* * * * * * ne-|fi- ci- is tu-||
 c4 c4 =A8 | c8 (c6 _B2 | =A4) (B6 AG A4) | B8 B4 B2 c2 | B4 B2 _A2 G4 A2 B2 | B4 B4 B4 B2 c2 | %21
w: is, qui vi-|vis et _|_ re- * * *|gnas per o- mni-|a se- cu- la sae- cu-|lo- rum, per o- mni-|
 B4 B2 A2 G4 A2 B2 | B8 B8 | (B8 c8) | B16 |] %25
w: a se- cu- la sae- cu-|lo- rum.|A- *|men.|
V:4
 z8 E,8- | E,4 E,4 E,8 | (C,6 D,2 E,8) | _D,8 (A,6 G,2 | F,4) F,4 E,8- | E,8 z8 | A,16 | F,8 C,8- | %8
w: A-|* gi- mus|ti- * *|bi gra- *|* ti- as,|_|Rex|o- mni-|
 C,4 C,4 C,8 | B,,8 B,8 | G,8 G,4 G,4 | E,8 E,8- | E,8 B,,4 B,,4 | E,4 G,4 F,8 | G,16 | %15
w: * po- tens|De- us,|pro u- ni-|ver- sus|_ be- ne-|fi- ci- is|tu-|
 C,4 C,4 F,8 | C,8 C,8 | F,16 | B,,8 E,4 G,2 A,2 | E,4 E,2 F,2 C,4 F,2 E,2 | %20
w: is, qui vi-|vis et|re-|gnas, per o- mni-|a se- cu- la sae- cu-|
 B,,4 B,,4 E,4 G,2 A,2 | E,4 E,2 F,2 C,4 F,2 E,2 | B,,8 B,,8 | (E,8 A,,8) | E,16 |] %25
w: lo- rum, per o- mni-|a se- cu- la sae- cu-|lo- rum.|A- *|men.|

